images/svg/insta.svg

<svg width="30" height="30" viewBox="0 0 30 30" fill="none" xmlns="http://www.w3.org/2000/svg">
<path d="M21.7209 0H8.27874C3.71384 0 0 3.71402 0 8.27892V21.7211C0 26.2862 3.71384 30 8.27874 30H21.7209C26.2862 30 30 26.286 30 21.7211V8.27892C30.0002 3.71402 26.2862 0 21.7209 0ZM27.3384 21.7211C27.3384 24.8185 24.8185 27.3383 21.7211 27.3383H8.27874C5.18153 27.3384 2.66175 24.8185 2.66175 21.7211V8.27892C2.66175 5.18171 5.18153 2.66175 8.27874 2.66175H21.7209C24.8183 2.66175 27.3383 5.18171 27.3383 8.27892V21.7211H27.3384Z" fill="#21243D"/>
<path d="M15 7.27014C10.7375 7.27014 7.26978 10.7379 7.26978 15.0004C7.26978 19.2627 10.7375 22.7303 15 22.7303C19.2625 22.7303 22.7303 19.2627 22.7303 15.0004C22.7303 10.7379 19.2625 7.27014 15 7.27014ZM15 20.0683C12.2054 20.0683 9.93152 17.7949 9.93152 15.0002C9.93152 12.2054 12.2052 9.93171 15 9.93171C17.7948 9.93171 20.0685 12.2054 20.0685 15.0002C20.0685 17.7949 17.7947 20.0683 15 20.0683Z" fill="#21243D"/>
<path d="M23.0545 5.01318C22.5417 5.01318 22.0379 5.2208 21.6757 5.58457C21.3118 5.94657 21.1025 6.45053 21.1025 6.96513C21.1025 7.47814 21.3119 7.98192 21.6757 8.34569C22.0377 8.70769 22.5417 8.91708 23.0545 8.91708C23.5691 8.91708 24.0713 8.70769 24.435 8.34569C24.7988 7.98192 25.0064 7.47796 25.0064 6.96513C25.0064 6.45053 24.7988 5.94657 24.435 5.58457C24.073 5.2208 23.5691 5.01318 23.0545 5.01318Z" fill="#21243D"/>
</svg>

<svg xmlns="http://www.w3.org/2000/svg" width="30" height="30" fill="none"><path fill="#21243D" d="M21.72 0H8.28C3.714 0 0 3.714 0 8.279V21.72C0 26.286 3.714 30 8.279 30H21.72C26.286 30 30 26.286 30 21.721V8.28C30 3.714 26.286 0 21.72 0Zm5.618 21.721a5.624 5.624 0 0 1-5.617 5.617H8.28a5.623 5.623 0 0 1-5.617-5.617V8.28a5.624 5.624 0 0 1 5.617-5.617H21.72a5.624 5.624 0 0 1 5.617 5.617V21.72Z"/><path fill="#21243D" d="M15 7.27c-4.262 0-7.73 3.468-7.73 7.73 0 4.263 3.468 7.73 7.73 7.73 4.262 0 7.73-3.467 7.73-7.73 0-4.262-3.468-7.73-7.73-7.73Zm0 12.798A5.074 5.074 0 0 1 9.932 15 5.074 5.074 0 0 1 15 9.932 5.074 5.074 0 0 1 20.069 15 5.074 5.074 0 0 1 15 20.068ZM23.055 5.013a1.96 1.96 0 0 0-1.38.572 1.962 1.962 0 0 0-.573 1.38c0 .513.21 1.017.574 1.38.362.363.866.572 1.379.572a1.97 1.97 0 0 0 1.38-.571c.364-.364.571-.868.571-1.38a1.96 1.96 0 0 0-.571-1.381 1.96 1.96 0 0 0-1.38-.572Z"/></svg>
